X: 1
T: Katie Moloney's
M: 2/4
L: 1/8
R: polka
K: Gmaj
|:DB BB|DA A2|DB B/A/G/A/|Bd d2|
DB B2|DA A2|GB AD|G2 G2:|
|:gd B/A/G/A/|Bd d2|gd B/A/G/A/|BA A2|
gd B/A/G/A/|Bd ge|dB AD|G2 G2:|
